src/shared/icons/temp.svg

<!-- Generated by IcoMoon.io -->
<svg version="1.1" xmlns="http://www.w3.org/2000/svg" fill="currentColor" viewBox="0 0 32 32">
<title></title>
<path d="M16 0.192c-8.704 0-15.808 7.104-15.808 15.808s7.104 15.872 15.808 15.872 15.872-7.168 15.872-15.872-7.168-15.808-15.872-15.808zM16 30.784c-8.128 0-14.784-6.656-14.784-14.784s6.656-14.784 14.784-14.784 14.784 6.656 14.784 14.784-6.656 14.784-14.784 14.784zM9.152 7.552c-1.152 0-2.112 0.96-2.112 2.112s0.96 2.112 2.112 2.112c1.152 0 2.112-0.96 2.112-2.112s-0.96-2.112-2.112-2.112zM9.152 10.752c-0.576 0-1.024-0.448-1.024-1.024s0.448-1.088 1.024-1.088c0.576 0 1.088 0.448 1.088 1.088-0.064 0.512-0.512 1.024-1.088 1.024zM18.56 9.216h3.264c0.32 0 0.512-0.256 0.512-0.512s-0.256-0.512-0.512-0.512h-3.264c-4.352 0-7.808 3.584-7.808 8.128s3.392 8.128 7.808 8.128h3.264c0.32 0 0.512-0.256 0.512-0.512s-0.256-0.512-0.512-0.512h-3.264c-3.84 0-6.784-3.072-6.784-7.104s2.88-7.104 6.784-7.104z"></path>
</svg>

<svg xmlns="http://www.w3.org/2000/svg" fill="currentColor" viewBox="0 0 32 32"><path d="M16 .192C7.296.192.192 7.296.192 16S7.296 31.872 16 31.872 31.872 24.704 31.872 16 24.704.192 16 .192zm0 30.592C7.872 30.784 1.216 24.128 1.216 16S7.872 1.216 16 1.216 30.784 7.872 30.784 16 24.128 30.784 16 30.784zM9.152 7.552c-1.152 0-2.112.96-2.112 2.112s.96 2.112 2.112 2.112c1.152 0 2.112-.96 2.112-2.112s-.96-2.112-2.112-2.112zm0 3.2c-.576 0-1.024-.448-1.024-1.024S8.576 8.64 9.152 8.64c.576 0 1.088.448 1.088 1.088-.064.512-.512 1.024-1.088 1.024zm9.408-1.536h3.264c.32 0 .512-.256.512-.512s-.256-.512-.512-.512H18.56c-4.352 0-7.808 3.584-7.808 8.128s3.392 8.128 7.808 8.128h3.264c.32 0 .512-.256.512-.512s-.256-.512-.512-.512H18.56c-3.84 0-6.784-3.072-6.784-7.104s2.88-7.104 6.784-7.104z"/></svg>
